X: 3
T: Beth Cohen's, high octave
C: Larry Unger
M: C|
L: 1/8
R: reel, hora
K: Am	% or A freygish
|:\
"A"A_B^cd efed | egfe "Bb"fed^c |\
[1,3 "A"A_B^cd efed | efed "Bb"e2ee :|
[2,4 "A"d^c_Bd "Bb"cBAG | "A"A2E2 A2z2 ::\
"A"A2eA "Bb"_B2ed | "A"^cde2 -egfe |\
A2eA "Bb"_B2ed |
"Gm"^c_BG2- GdcB ||\
"A"A2eA "Bb"_B2ed | "A"^cdeg a3_b |\
a_bag "Gm"fed^c |[1 "A"^c6 z2 :|[2 "A"a6 z2 |]


